!!!!SEGMENT: pl-lzu--m-15111--001-037_noskowski-zygmunt--spiewnik-dla-dzieci-op-34-37-zniwa.krn
!!!cenid: 18xx:4734
!!!COM: Noskowski, Zygmunt
!!!COM-rismID: pe106604
!!!CDT: 1846/05/02-1909/07/23
!!!CNT: Polish
!!!GTL: Śpiewnik dla dzieci, op. 34
!!!OTL: 37. Żniwa
!!!OMV: 037
!!!PDT: 1890
!!!AGN: Secular; Song; Children
!!!YEC: Copyright 2022 Narodowy Instytut Fryderyka Chopina (https://polishscores.org)
!!!YEM: License CC-BY-4.0 (https://creativecommons.org/licenses/by/4.0)
!!!SMS-siglum: PL-LŹu
!!!SMS-shelfmark: M 15111
!!!SMS-variant:
!!!SMS-altvar:
!!!SMS-shelfwork: 001-037 G
!!!NIFC-rismSourceID: 1001234040
!!!NIFC-rismChildID: 1001234040
!!!NIFC-islandoraID: pl-lzu:5455
!!!URL-pdf-islandora: https://repozytorium.nifc.pl/islandora/object/pl-lzu%3A5455/datastream/PDF/view
!!!URL-scan: https://polish.musicsources.pl/pl/lokalizacje/galeria/druki-muzyczne/23228/46 @EN{Scan on Polish Music Sources Website} @PL{Skany w portalu Dziedzictwo Muzyki Polskiej w otwartym dostępie}
!!!IIIF:
!!!ONB-nifc:
!!!AIN: 1 piano 1 vox
!!!key: A
!!!OMD: Allegretto.
**kern	**kern	**dynam	**kern	**text	**text	**text	**dynam
*part2	*part2	*part2	*part1	*part1	*part1	*part1	*part1
*staff3	*staff2	*staff2,3	*staff1	*staff1	*staff1	*staff1	*staff1
*I"[Piano]	*I"[Piano]	*	*I"[Voice]	*	*	*	*
*I'pf	*I'pf	*	*I'V	*	*	*	*
*Ipiano	*Ipiano	*	*Ivox	*	*	*	*
*ICklav	*ICklav	*	*ICvox	*	*	*	*
*IGacomp	*IGacomp	*	*IGsolo	*	*	*	*
*>[A,B,B,C]	*>[A,B,B,C]	*>[A,B,B,C]	*>[A,B,B,C]	*>[A,B,B,C]	*>[A,B,B,C]	*>[A,B,B,C]	*>[A,B,B,C]
*>A	*>A	*>A	*>A	*>A	*>A	*>A	*>A
*clefF4	*clefG2	*	*clefG2	*	*	*	*
*k[f#c#g#]	*k[f#c#g#]	*	*k[f#c#g#]	*	*	*	*
*A:	*A:	*	*A:	*	*	*	*
*M3/4	*M3/4	*	*M3/4	*	*	*	*
=1	=1	=1	=1	=1	=1	=1	=1
!	!LO:TX:a:i:t=Cokolwiek żwawo.	!	!	!	!	!	!
.	(8qaa/	.	.	.	.	.	.
2e 2c# 2A\	8.ccc#\L)	p	2.r	.	.	.	.
.	16ccc#\Jk	.	.	.	.	.	.
.	2ccc#\	.	.	.	.	.	.
4e 4c# 4A\	.	.	.	.	.	.	.
=2!|:	=2!|:	=2!|:	=2!|:	=2!|:	=2!|:	=2!|:	=2!|:
*>B	*>B	*>B	*>B	*>B	*>B	*>B	*>B
.	(8qaa/	.	.	.	.	.	.
2f# 2d#X 2A 2F#\	8.ccc#\L)	<	2.r	.	.	.	.
.	16ccc#\Jk	.	.	.	.	.	.
.	2ccc#\	.	.	.	.	.	.
4f# 4d# 4A 4F#\	.	[	.	.	.	.	.
=3	=3	=3	=3	=3	=3	=3	=3
.	(8qaa/	.	.	.	.	.	.
4r	8.ccc#\L)	>	2.r	.	.	.	.
.	16ccc#\Jk	.	.	.	.	.	.
4e 4G# 4E\	4ccc#\	.	.	.	.	.	.
4dn 4G# 4E\	4bb\	]	.	.	.	.	.
=4	=4	=4	=4	=4	=4	=4	=4
4c# 4A\	4aa\	.	2.r	.	.	.	.
4AA/	4r	.	.	.	.	.	.
4r	4r	.	.	.	.	.	.
!!LO:LB:g=original
=5	=5	=5	=5	=5	=5	=5	=5
*	*	*	*	*v:1	*v:2	*v:3	*
!	!	!	!LO:TX:a:i:t=simplice	!	!	!	!LO:DY:rj
2c# 2A\	8.aL 8.e/	.	8.a/	Prze-	A	Co	p
.	16g#/Jk	.	16f#/	-pió-	o-	po-	.
.	4a/	.	4a/	-recz-	-de	-wią-	.
4e 4c# 4A\	4b/	.	4b/	-ka	wsi	-żą	.
=6	=6	=6	=6	=6	=6	=6	=6
2d 2B 2A\	8.f#/L	.	8.f#/	się	sły-	cię-	.
.	16g#/Jk	.	16g#/	od-	-chać	-żkie	.
.	4g#/	.	4g#/	-zy-	śpiew-	sno-	.
4d 4B 4A\	4e/	.	4e,/	-wa,	-ki,	-py,	.
=7	=7	=7	=7	=7	=7	=7	=7
2c# 2A\	8.aL 8.e/	.	8.a/	I-	Śpie-	To	.
.	16g#/Jk	.	16g#/	-dą,	-szą	skła-	.
.	4a/	.	4a/	i-	chłop-	-da-	.
4d 4A\	4b 4g#/	.	4b/	-dą	-cy,	-ją	.
=8	=8	=8	=8	=8	=8	=8	=8
2e 2A\	8.cc#L 8.a\	.	8.cc#\	po-	śpie-	je	.
.	16b\Jk	.	16b\	-lem	-szą	na	.
.	4cc#\	.	4cc#\	żni-	dziew-	ko-	.
4c# 4A\	4ee 4a\	.	4ee,\	-wa,	-ki,	-py,	.
!!LO:PB:g=original
=9	=9	=9	=9	=9	=9	=9	=9
*	*	*	*	*v:1	*v:2	*v:3	*
2e 2d 2A\	2b 2g#/	.	2b\	Brzę-	Nio-	Do-	.
4e 4d 4A\	4b 4g#/	.	4b\	-czą	-są	-bra	.
=10	=10	=10	=10	=10	=10	=10	=10
2e 2c# 2A\	(>8cc#/L	.	(8cc#\L	sier-	gra-	zie-	.
.	8b/J	.	8b\J)	.	.	.	.
.	4a/)	.	4a/	-py,	-bie,	-mia,	.
4A 4C#\	4e/	.	4r	.	.	.	.
=11	=11	=11	=11	=11	=11	=11	=11
2A 2D\	2f# 2d/	.	2f#/	brzę-	w po-	ła-	.
4E 4BB/	4g# 4d/	.	4g#/	-czą	-le	-ska	.
=12	=12	=12	=12	=12	=12	=12	=12
*	*^	*	*	*	*	*	*
2E 2AA/	(8a/L	2c#\	.	(8a/L	ko-	dą-	bo-	.
.	8g#/J	.	.	8g#/J)	.	.	.	.
.	4a/)	.	.	4a/	-sy,	-żą,	-ża,	.
4E 4AA/	4r	4c#\	.	4r	.	.	.	.
=13	=13	=13	=13	=13	=13	=13	=13	=13
2E 2AA/	(8.e/L	2d\	.	8.e/	Cięż-	Za	Bę-	.
.	16f#/Jk	.	.	16f#/	-kie	żeń-	-dzie	.
.	4g#/)	.	.	4g#/	ziar-	-ca-	chle-	.
4E 4AA/	8f#/L	4d\	.	(8f#/L	-nem	-mi	-bek	.
.	8g#/J	.	.	8g#/J)	.	.	.	.
=14	=14	=14	=14	=14	=14	=14	=14	=14
2E 2AA/	(8a/L	2c#\	<	8a/	le-	sno-	z te-	<
.	8g#/J	.	.	8g#/	-cą	-py	-go	.
.	4a/)	.	.	4a/	kło-	wią-	zbo-	.
4A\	4cc# 4a 4e/	4ryy	[	4cc#,\	-sy.	-żą.	-ża.	[
!!LO:LB:g=original
=15	=15	=15	=15	=15	=15	=15	=15	=15
*	*	*	*	*	*v:1	*v:2	*v:3	*
2d 2F#\	(8dd/L	2a\	.	(8dd\L	Da-	Da-	Da-	.
.	8cc#/J	.	.	8cc#\J)	.	.	.	.
.	4b/)	.	.	4b\	-na!	-na!	-na!	.
4d 4E\	8cc#/L	4g#\	.	(8cc#\L	Da-	Da-	Da-	.
.	8dd/J	.	.	8dd\J)	.	.	.	.
*	*v	*v	*	*	*	*	*	*
=16	=16	=16	=16	=16	=16	=16	=16
2c# 2A^\	2ee 2a^\	>	2ee^\	-da-	-da-	-da-	.
4A\	4cc# 4a 4e/	]	4cc#,\	-na!	-na!	-na!	.
=17	=17	=17	=17	=17	=17	=17	=17
*	*^	*	*	*	*	*	*
2E\	8.b/L	4g# 4d\	.	8.b\	Cięż-	Za	Bę-	.
.	16dd/Jk	.	.	16dd\	-kie	żeń-	-dzie	.
.	4cc#/	4r	.	4cc#\	ziar-	-ca-	chle-	.
4EE/	4b/	4g# 4d\	.	4b\	-nem	-mi,	-bek	.
=18	=18	=18	=18	=18	=18	=18	=18	=18
4EE#X/	(8cc#/L	4g# 4c#\	.	8cc#\	le-	sno-	z te-	.
.	8b/J	.	.	8b\	-cą	-py	-go	.
4FF#/	4a 4f# 4c#/)	2ryy	.	4a/	kło-	wią-	zbo-	.
4BB/	4f# 4d#X 4A/	.	.	4f#,/	-sy.	-żą.	-ża	.
=19	=19	=19	=19	=19	=19	=19	=19	=19
2EE/	(8g#/L	4dn 4B\	.	(8g#/L	Da-	Da-	Da-	.
.	8f#/J	.	.	8f#/J)	.	.	.	.
.	4e/)	4r	.	4e/	-na!	-na!	-na!	.
4E\	(8g#/L	4d\	.	(8g#/L	Da	Da	Da	.
.	8a/J)	.	.	8a/J)	.	.	.	.
*	*v	*v	*	*	*	*	*	*
!!LO:LB:g=original
=20	=20	=20	=20	=20	=20	=20	=20
*	*	*	*	*v:1	*v:2	*v:3	*
2E 2AA/	(8bL 8d/	.	(8b\L	da-	da-	da-	.
.	8cc#/J)	.	8cc#\J)	.	.	.	.
.	4a 4c#/	.	4a/	-na!	-na!	-na!	.
4r	4r	.	4r	.	.	.	.
=21	=21	=21	=21	=21	=21	=21	=21
.	(8qaa/	.	.	.	.	.	.
!	!	!LO:DY:rj	!	!	!	!	!
2e 2c# 2A\	8.ccc#\L)	p	2.r	.	.	.	.
.	16ccc#\Jk	.	.	.	.	.	.
.	2ccc#\	.	.	.	.	.	.
4e 4c# 4A\	.	.	.	.	.	.	.
=22:|!	=22:|!	=22:|!	=22:|!	=22:|!	=22:|!	=22:|!	=22:|!
*>C	*>C	*>C	*>C	*>C	*>C	*>C	*>C
.	(8qaa/	.	.	.	.	.	.
2f# 2d#X 2A 2F#\	8.ccc#\L)	.	2.r	.	.	.	.
.	16ccc#\Jk	.	.	.	.	.	.
.	2ccc#\	.	.	.	.	.	.
*ped	*	*	*	*	*	*	*
4BB/	.	.	.	.	.	.	.
=23	=23	=23	=23	=23	=23	=23	=23
.	(8qaa/	>	.	.	.	.	.
4E\	8.ccc#\L)	.	2.r	.	.	.	.
.	16ccc#\Jk	.	.	.	.	.	.
*clefG2	*	*	*	*	*	*	*
4f# 4dn 4B/	4ccc#\	.	.	.	.	.	.
4g# 4d 4B/	4bb\	.	.	.	.	.	.
=24	=24	=24	=24	=24	=24	=24	=24
4a 4c# 4A/	2aa\	]	2.r	.	.	.	.
*clefF4	*	*	*	*	*	*	*
4AA/	.	.	.	.	.	.	.
4r	4r	.	.	.	.	.	.
==	==	==	==	==	==	==	==
*-	*-	*-	*-	*-	*-	*-	*-
!!!system-decoration: p1{p2}
!!!RDF**kern: > = above
!!!RDF**kern: < = below
!!!ENC: Andrzej Gręziak
!!!END: 2025-03-06
!!!ENC: Marta Lawrence
!!!END: 2025-03-22
